wp-content/plugins/wp-rocket/assets/img/picto-wprocket-dark.svg

<svg height="45" viewBox="0 0 25 45" width="25" xmlns="http://www.w3.org/2000/svg" xmlns:xlink="http://www.w3.org/1999/xlink"><linearGradient id="a" x1="50.138384%" x2="50.138384%" y1="100%" y2="32.534707%"><stop offset="0" stop-color="#f56640"/><stop offset=".243858064" stop-color="#f57840"/><stop offset="1" stop-color="#ffbe54"/></linearGradient><linearGradient id="b" x1="50.002945%" x2="50.002945%" y1="98.320578%" y2="18.977303%"><stop offset="0" stop-color="#f56640"/><stop offset=".181093204" stop-color="#f57840"/><stop offset="1" stop-color="#ffbe54"/></linearGradient><linearGradient id="c" x1="50.000006%" x2="50%" y1="110.433207%" y2="-25.444358%"><stop offset="0" stop-color="#f56640"/><stop offset=".0837881088" stop-color="#f57840"/><stop offset="1" stop-color="#ffbe54"/></linearGradient><linearGradient id="d" x1="50.000006%" x2="50.000006%" y1="84.377953%" y2="0%"><stop offset="0" stop-color="#f56640"/><stop offset=".391082657" stop-color="#f57840"/><stop offset="1" stop-color="#ffbe54"/></linearGradient><g fill="none" fill-rule="evenodd"><path d="m18.4447368 22.8371579c-.8235789 0-1.5956842-.4804211-1.9731579-1.2353684l-.652-1.4584211h-6.46852627l-.652 1.4584211c-.37747368.7549473-1.14957895 1.2353684-1.97315789 1.2353684h-.3431579l2.76242105 21.0527368c.13726316.3946316.39463158.3946316.54905264 0l2.74526317-6.7258947 2.3849474 6.7087368c.1372631.3946316.3946315.3946316.5490526 0l3.1913684-21.018421z" fill="url(#a)"/><path d="m15.5622105 19.56h-5.93663155l-.90936842 2.0417895c-.30884211.6176842-.90936842 1.0637894-1.56136842 1.1838947l2.09326315 12.9885263c.13726316.2402106.39463158.2402106.54905263 0l2.67663161-4.066421 2.4535789 4.0492631c.1544211.2402106.3946316.2402106.5490527 0l2.3677894-13.0056842c-.5833684-.1715789-1.0981052-.5833684-1.3726316-1.1495789z" fill="url(#b)"/><path d="m16.4715789 21.6017895-3.8948421-8.6990527-3.87768417 8.6990527c-.13726316.2573684-.3088421.480421-.51473684.6691579l1.6128421 8.630421c.08578948.1201053.30884211.1544211.46326321 0l2.1618947-2.8653684 2.1618947 2.8482105c.1372632.171579.3774737.1372632.4632632 0l1.784421-8.7333684c-.1372631-.1715789-.2573684-.3431579-.3603158-.5490526" fill="url(#c)"/><path d="m16.4715789 21.6017895-3.8948421-8.6990527-3.87768417 8.6990527c-.13726316.2573684-.3088421.480421-.51473684.6691579l1.6128421 8.630421c.08578948.1201053.30884211.1544211.46326321 0l2.1618947-2.8653684 2.1618947 2.8482105c.1372632.171579.3774737.1372632.4632632 0l1.784421-8.7333684c-.1372631-.1715789-.2573684-.3431579-.3603158-.5490526" fill="url(#d)" opacity=".5"/><path d="m.15442105 1.06378947c-.12010526-.41178947.12010527-.70347368.53189474-.70347368h3.41442105c.24021053 0 .46326316.20589474.53189474.41178947l2.50505263 9.86578944h.12010526l4.51252633-10.24326312c.0857895-.17157895.2573684-.326.4975789-.326h.5318948c.2573684 0 .4289473.13726316.4975789.326l4.5125263 10.24326312h.1201053l2.5050526-9.86578944c.0514737-.20589473.2916842-.41178947.5318948-.41178947h3.414421c.4117895 0 .6348421.29168421.5318948.70347368l-5.5076843 19.56000003c-.0514736.2402105-.2916842.4117894-.5318947.4117894h-.4632631c-.2058948 0-.4117895-.1372631-.497579-.326l-5.3361053-11.9075789h-.0857894l-5.30178951 11.9075789c-.08578947.171579-.29168421.326-.49757894.326h-.46326316c-.24021053 0-.46326316-.1715789-.53189474-.4117894z" fill="#f56640"/></g></svg>

<?xml version="1.0" encoding="UTF-8"?>
<svg width="25px" height="45px" viewBox="0 0 25 45" version="1.1" xmlns="http://www.w3.org/2000/svg" xmlns:xlink="http://www.w3.org/1999/xlink">
    <!-- Generator: Sketch 50.2 (55047) - http://www.bohemiancoding.com/sketch -->
    <title>Icons / WP Rocket / Light</title>
    <desc>Created with Sketch.</desc>
    <defs>
        <linearGradient x1="50.1383841%" y1="100%" x2="50.1383841%" y2="32.5347067%" id="linearGradient-1">
            <stop stop-color="#F56640" offset="0%"></stop>
            <stop stop-color="#F57840" offset="24.3858064%"></stop>
            <stop stop-color="#FFBE54" offset="100%"></stop>
        </linearGradient>
        <linearGradient x1="50.0029445%" y1="98.3205782%" x2="50.0029445%" y2="18.9773025%" id="linearGradient-2">
            <stop stop-color="#F56640" offset="0%"></stop>
            <stop stop-color="#F57840" offset="18.1093204%"></stop>
            <stop stop-color="#FFBE54" offset="100%"></stop>
        </linearGradient>
        <linearGradient x1="50.000006%" y1="110.433207%" x2="50%" y2="-25.4443577%" id="linearGradient-3">
            <stop stop-color="#F56640" offset="0%"></stop>
            <stop stop-color="#F57840" offset="8.37881088%"></stop>
            <stop stop-color="#FFBE54" offset="100%"></stop>
        </linearGradient>
        <linearGradient x1="50.000006%" y1="84.3779533%" x2="50.000006%" y2="0%" id="linearGradient-4">
            <stop stop-color="#F56640" offset="0%"></stop>
            <stop stop-color="#F57840" offset="39.1082657%"></stop>
            <stop stop-color="#FFBE54" offset="100%"></stop>
        </linearGradient>
    </defs>
    <g id="Symbols" stroke="none" stroke-width="1" fill="none" fill-rule="evenodd">
        <g id="Navigation-/-Header-Light-Mobile" transform="translate(-29.000000, -17.000000)">
            <g id="Icons-/-WP-Rocket-/-Light" transform="translate(29.000000, 17.000000)">
                <path d="M18.4447368,22.8371579 C17.6211579,22.8371579 16.8490526,22.3567368 16.4715789,21.6017895 L15.8195789,20.1433684 L9.35105263,20.1433684 L8.69905263,21.6017895 C8.32157895,22.3567368 7.54947368,22.8371579 6.72589474,22.8371579 L6.38273684,22.8371579 L9.14515789,43.8898947 C9.28242105,44.2845263 9.53978947,44.2845263 9.69421053,43.8898947 L12.4394737,37.164 L14.8244211,43.8727368 C14.9616842,44.2673684 15.2190526,44.2673684 15.3734737,43.8727368 L18.5648421,22.8543158 L18.4447368,22.8371579 L18.4447368,22.8371579 Z" id="Shape" fill="url(#linearGradient-1)"></path>
                <path d="M15.5622105,19.56 L9.62557895,19.56 L8.71621053,21.6017895 C8.40736842,22.2194737 7.80684211,22.6655789 7.15484211,22.7856842 L9.24810526,35.7742105 C9.38536842,36.0144211 9.64273684,36.0144211 9.79715789,35.7742105 L12.4737895,31.7077895 L14.9273684,35.7570526 C15.0817895,35.9972632 15.322,35.9972632 15.4764211,35.7570526 L17.8442105,22.7513684 C17.2608421,22.5797895 16.7461053,22.168 16.4715789,21.6017895 L15.5622105,19.56 Z" id="Shape" fill="url(#linearGradient-2)"></path>
                <path d="M16.4715789,21.6017895 L12.5767368,12.9027368 L8.69905263,21.6017895 C8.56178947,21.8591579 8.39021053,22.0822105 8.18431579,22.2709474 L9.79715789,30.9013684 C9.88294737,31.0214737 10.106,31.0557895 10.2604211,30.9013684 L12.4223158,28.036 L14.5842105,30.8842105 C14.7214737,31.0557895 14.9616842,31.0214737 15.0474737,30.8842105 L16.8318947,22.1508421 C16.6946316,21.9792632 16.5745263,21.8076842 16.4715789,21.6017895" id="Shape" fill="url(#linearGradient-3)"></path>
                <path d="M16.4715789,21.6017895 L12.5767368,12.9027368 L8.69905263,21.6017895 C8.56178947,21.8591579 8.39021053,22.0822105 8.18431579,22.2709474 L9.79715789,30.9013684 C9.88294737,31.0214737 10.106,31.0557895 10.2604211,30.9013684 L12.4223158,28.036 L14.5842105,30.8842105 C14.7214737,31.0557895 14.9616842,31.0214737 15.0474737,30.8842105 L16.8318947,22.1508421 C16.6946316,21.9792632 16.5745263,21.8076842 16.4715789,21.6017895" id="Shape" fill="url(#linearGradient-4)" opacity="0.5"></path>
                <path d="M0.154421053,1.06378947 C0.0343157895,0.652 0.274526316,0.360315789 0.686315789,0.360315789 L4.10073684,0.360315789 C4.34094737,0.360315789 4.564,0.566210526 4.63263158,0.772105263 L7.13768421,10.6378947 L7.25778947,10.6378947 L11.7703158,0.394631579 C11.8561053,0.223052632 12.0276842,0.0686315789 12.2678947,0.0686315789 L12.7997895,0.0686315789 C13.0571579,0.0686315789 13.2287368,0.205894737 13.2973684,0.394631579 L17.8098947,10.6378947 L17.93,10.6378947 L20.4350526,0.772105263 C20.4865263,0.566210526 20.7267368,0.360315789 20.9669474,0.360315789 L24.3813684,0.360315789 C24.7931579,0.360315789 25.0162105,0.652 24.9132632,1.06378947 L19.4055789,20.6237895 C19.3541053,20.864 19.1138947,21.0355789 18.8736842,21.0355789 L18.4104211,21.0355789 C18.2045263,21.0355789 17.9986316,20.8983158 17.9128421,20.7095789 L12.5767368,8.802 L12.4909474,8.802 L7.18915789,20.7095789 C7.10336842,20.8811579 6.89747368,21.0355789 6.69157895,21.0355789 L6.22831579,21.0355789 C5.98810526,21.0355789 5.76505263,20.864 5.69642105,20.6237895 L0.154421053,1.06378947" id="Shape" fill="#F56640"></path>
            </g>
        </g>
    </g>
</svg>
